packages/tokens/icons/contentPersonalization/size32Px.svg

<svg viewBox="0 0 32 32" fill="none" xmlns="http://www.w3.org/2000/svg" width="1em" height="1em"><path d="M23 20.5H27.5C28.6046 20.5 29.5 21.3954 29.5 22.5V24.5" stroke="currentColor" stroke-linecap="round" stroke-linejoin="round"/><path d="M25.5 18.5C26.8807 18.5 28 17.3807 28 16C28 14.6193 26.8807 13.5 25.5 13.5C24.1193 13.5 23 14.6193 23 16C23 17.3807 24.1193 18.5 25.5 18.5Z" stroke="currentColor" stroke-linecap="round" stroke-linejoin="round"/><path d="M9 20.5H4.5C3.39543 20.5 2.5 21.3954 2.5 22.5L2.5 24.5" stroke="currentColor" stroke-linecap="round" stroke-linejoin="round"/><path d="M6.5 18.5C5.11929 18.5 4 17.3807 4 16C4 14.6193 5.11929 13.5 6.5 13.5C7.88071 13.5 9 14.6193 9 16C9 17.3807 7.88071 18.5 6.5 18.5Z" stroke="currentColor" stroke-linecap="round" stroke-linejoin="round"/><path d="M9 29.5001V27.5001C9 25.8433 10.3431 24.5001 12 24.5001H20C21.6569 24.5001 23 25.8433 23 27.5001V29.5001" stroke="currentColor" stroke-linecap="round"/><path d="M16 22.5001C18.2091 22.5001 20 20.7093 20 18.5001C20 16.291 18.2091 14.5001 16 14.5001C13.7909 14.5001 12 16.291 12 18.5001C12 20.7093 13.7909 22.5001 16 22.5001Z" stroke="currentColor" stroke-linecap="round" stroke-linejoin="round"/><path d="M11.4039 7.69658C11.2087 7.50132 11.2087 7.18473 11.4039 6.98947L15.6466 2.74683C15.8418 2.55157 16.1584 2.55157 16.3537 2.74683L20.5963 6.98947C20.7916 7.18473 20.7916 7.50132 20.5963 7.69658L16.3537 11.9392C16.1584 12.1345 15.8418 12.1345 15.6466 11.9392L11.4039 7.69658Z" stroke="currentColor"/></svg>

<svg xmlns="http://www.w3.org/2000/svg" fill="none" viewBox="0 0 32 32" width="1em" height="1em"><path stroke="currentColor" stroke-linecap="round" stroke-linejoin="round" d="M23 20.5h4.5a2 2 0 0 1 2 2v2m-4-6a2.5 2.5 0 1 0 0-5 2.5 2.5 0 0 0 0 5ZM9 20.5H4.5a2 2 0 0 0-2 2v2m4-6a2.5 2.5 0 1 1 0-5 2.5 2.5 0 0 1 0 5Z"/><path stroke="currentColor" stroke-linecap="round" d="M9 29.5v-2a3 3 0 0 1 3-3h8a3 3 0 0 1 3 3v2"/><path stroke="currentColor" stroke-linecap="round" stroke-linejoin="round" d="M16 22.5a4 4 0 1 0 0-8 4 4 0 0 0 0 8Z"/><path stroke="currentColor" d="M11.404 7.697a.5.5 0 0 1 0-.708l4.243-4.242a.5.5 0 0 1 .707 0l4.242 4.242a.5.5 0 0 1 0 .708l-4.242 4.242a.5.5 0 0 1-.707 0l-4.243-4.242Z"/></svg>
